X:1
T: Knock him down, Susie
C:
R:Reel
Q: 232
K:D
M:4/4
L:1/8
|:B|AF DF EF GB|AF DF Ad dB|AF DF EF GA|AF dF Ad dB|
AF DF EF GB|AF DF Ad dB|AF DF EF GA|AF dF Ad dA|
df eg fd cA|df eg fa af|ge fd ec BA|B1/2c1/2d AF Ad dA|
df eg fd cA|df eg fa af|((3gab) ((3fga) ((3efd) ((3cBA) |((3Bcd) ((3AGF) Ad d:|
